X: 6670
T: Celestial
R: polka
M: 2/4
K: Bminor
F3/2B/ dB|cB Ac|BG GG|DG BG|A3/2F/ EF|DF EB|AE EE|cE GE|
F3/2B/ dB|cB Ac|BG GG|DG Bd|ee2c|de cd|ec/d/ c/B/A|1 ED/ED/G:|2 ED/ED/F||
G3/2F/ E(G|G)E AF|B3/2G/ G(B|B)G cA|d3/2B/ B(d|d)B fe|c2 c/d/c/B/|AFFF|
G3/2E/ E(G|G)E AF|B3/2G/ G(B|B)G cA|d3/2B/ B(d|d)B (f2|f)g fe|cAFA|
G3/2F/ E(G|G)E AF|B3/2G/ G(B|B)G cA|d3/2B/ B(d|d)B fe|c2 c/d/c/B/|AFFF|
G3/2E/ E(G|G)E AF|B3/2G/ G(B|B)G cA|d3/2B/ B(d|d)B (f2|f)g fa|^afec||

